X:1
T:Truro, LM
T:Truro, LM
T:Psalmodia Evangelica, by Thomas Williams, 1789
T:Public Domain Courtesy of the Cyber Hymnal™
C:Psalmodia Evangelica, by Thomas Williams, 1789
Z:Public Domain
Z:Courtesy of the Cyber Hymnal™
%%score ( 1 2 ) ( 3 4 )
L:1/8
Q:1/4=160
M:2/2
K:C
V:1 treble 
V:2 treble 
V:3 bass 
V:4 bass 
V:1
 C4 [CE]3 [CF] | [CG]6 G2 | [FA]4 [FB]4 | [Ec]6 [B,G]2 | [Cc]4 [CG]4 | ([B,F]2 [CE]2) ([G,D]2 C2) | %6
 [B,F]4 [CE]4 | [B,D]6 [B,D]2 | [DG]4 [DA]4 | [DB]6 [Dd]2 | (d2 c2) ([DB]2 [CA]2) | [B,G]6 [DG]2 | %12
 [CG]4 [Cc]4 | ([CD]2 [B,A]2) ([CG]2 [DF]2) | [CE]4 [B,D]4 | C8 |] %16
V:2
 C4 x4 | x6 G2 | x8 | x8 | x8 | x6 C2 | x8 | x8 | x8 | x8 | E4 x4 | x8 | x8 | x8 | x8 | C8 |] %16
V:3
 [C,E,]4 [C,G,]3 [D,G,] | [E,G,]6 [E,C]2 | [F,C]4 [D,G,]4 | [C,G,]6 [D,G,]2 | [E,G,]4 [E,G,]4 | %5
 G,4 ([F,B,]2 [E,C]2) | [D,G,]4 [C,G,]4 | [G,,G,]6 [G,,G,]2 | [B,,G,]4 [D,^F,]4 | G,6 [B,,G,]2 | %10
 [C,G,]4 (G,2 ^F,2) | [G,,G,]6 [F,B,]2 | [E,C]4 [C,E,]4 | ([F,A,]2 [D,F,]2) ([E,G,]2 [F,A,]2) | %14
 G,4 (G,2 F,2) | [C,E,]8 |] %16
V:4
 x8 | x8 | x8 | x8 | x8 | (D,2 C,2) x4 | x8 | x8 | x8 | G,6 x2 | x4 D,4 | x8 | x8 | x8 | G,4 G,,4 | %15
 x8 |] %16

